img/icons/dribbble.svg

<svg width="20" height="20" viewBox="0 0 20 20" fill="none" xmlns="http://www.w3.org/2000/svg">
<path d="M13.6406 5.89955C12.9797 5.31148 12.186 4.8924 11.3277 4.6782C10.4693 4.46399 9.5718 4.46106 8.71205 4.66964C8.86384 4.87277 9.86161 6.22991 10.7612 7.88393C12.7143 7.15179 13.5402 6.04018 13.6406 5.89955V5.89955ZM10.9375 10.9107C7.84152 11.9888 6.72768 14.1384 6.62946 14.3393C7.56027 15.0647 8.72991 15.4978 10 15.4978C10.7612 15.4978 11.4866 15.3438 12.1451 15.0625C12.0625 14.5804 11.7455 12.9018 10.9732 10.8973L10.9375 10.9107ZM12.0022 10.6451C12.721 12.6183 13.0134 14.2254 13.0692 14.5603C14.3013 13.7277 15.1786 12.4085 15.4219 10.8795C15.2344 10.8214 13.7232 10.3705 12.0022 10.6451ZM10 0C4.47768 0 0 4.47768 0 10C0 15.5223 4.47768 20 10 20C15.5223 20 20 15.5223 20 10C20 4.47768 15.5223 0 10 0ZM10 16.4286C6.45536 16.4286 3.57143 13.5446 3.57143 10C3.57143 6.45536 6.45536 3.57143 10 3.57143C13.5446 3.57143 16.4286 6.45536 16.4286 10C16.4286 13.5446 13.5446 16.4286 10 16.4286ZM11.1853 8.70089C11.3125 8.96205 11.4353 9.22768 11.5491 9.49554C11.5893 9.58929 11.6295 9.68304 11.6674 9.77902C13.4933 9.54911 15.3103 9.91741 15.4911 9.95536C15.4799 8.65848 15.0156 7.46875 14.2522 6.53348C14.1339 6.69196 13.2143 7.87277 11.1853 8.70089V8.70089ZM9.70089 8.21429C8.79018 6.59598 7.81027 5.23661 7.66518 5.03795C6.12946 5.76339 4.97991 7.17857 4.625 8.8817C4.87054 8.88616 7.13393 8.89732 9.70089 8.21429ZM10.3839 10.0558C10.4554 10.0335 10.5268 10.0112 10.6004 9.99107C10.4621 9.67857 10.3125 9.36607 10.1563 9.06027C7.41518 9.8817 4.75223 9.84598 4.51339 9.84152C4.51116 9.89732 4.51116 9.95313 4.51116 10.0089C4.51116 11.4196 5.04464 12.7076 5.92187 13.6808C6.04464 13.4665 7.55134 10.971 10.3839 10.0558V10.0558Z" fill="#D9D9D9"/>
</svg>

<?xml version="1.0" encoding="utf-8"?>
<!-- Generator: Adobe Illustrator 24.0.3, SVG Export Plug-In . SVG Version: 6.00 Build 0)  -->
<svg version="1.1" id="Слой_1" xmlns="http://www.w3.org/2000/svg" xmlns:xlink="http://www.w3.org/1999/xlink" x="0px" y="0px"
	 viewBox="0 0 20 20" style="enable-background:new 0 0 20 20;" xml:space="preserve">
<path d="M13.6,5.9c-0.7-0.6-1.5-1-2.3-1.2c-0.9-0.2-1.8-0.2-2.6,0c0.2,0.2,1.1,1.6,2,3.2C12.7,7.2,13.5,6,13.6,5.9L13.6,5.9z
	 M10.9,10.9c-3.1,1.1-4.2,3.2-4.3,3.4c0.9,0.7,2.1,1.2,3.4,1.2c0.8,0,1.5-0.2,2.1-0.4C12.1,14.6,11.7,12.9,10.9,10.9L10.9,10.9z
	 M12,10.6c0.7,2,1,3.6,1.1,3.9c1.2-0.8,2.1-2.2,2.4-3.7C15.2,10.8,13.7,10.4,12,10.6z M10,0C4.5,0,0,4.5,0,10c0,5.5,4.5,10,10,10
	c5.5,0,10-4.5,10-10C20,4.5,15.5,0,10,0z M10,16.4c-3.5,0-6.4-2.9-6.4-6.4c0-3.5,2.9-6.4,6.4-6.4c3.5,0,6.4,2.9,6.4,6.4
	C16.4,13.5,13.5,16.4,10,16.4z M11.2,8.7c0.1,0.3,0.2,0.5,0.4,0.8c0,0.1,0.1,0.2,0.1,0.3c1.8-0.2,3.6,0.1,3.8,0.2
	c0-1.3-0.5-2.5-1.2-3.4C14.1,6.7,13.2,7.9,11.2,8.7L11.2,8.7z M9.7,8.2c-0.9-1.6-1.9-3-2-3.2C6.1,5.8,5,7.2,4.6,8.9
	C4.9,8.9,7.1,8.9,9.7,8.2z M10.4,10.1c0.1,0,0.1,0,0.2-0.1c-0.1-0.3-0.3-0.6-0.4-0.9C7.4,9.9,4.8,9.8,4.5,9.8c0,0.1,0,0.1,0,0.2
	c0,1.4,0.5,2.7,1.4,3.7C6,13.5,7.6,11,10.4,10.1L10.4,10.1z"/>
</svg>
